!!!OTL: 369. Auf Napoleon III. (1870).
!!!ODT: 1890
!!!ARE: Europa, Mitteleuropa, Deutschland, Nassau, Dillkreis; Wetterau
!!!SCT: E0369
!!!TXL: @@DE
!!!YEM: Copyright 1995, estate of Helmut Schaffrath.
**kern	**text
*ICvox	*
*M4/4	*
*met(c)	*
*k[b-]	*
*F:	*
!LO:TX:a:t=Marschtempo.	!
!LO:TX:a:t=Aus dem Dillkreis (Naſſauiſch) und der Wetterau. 1890.	!
{4c	Was
=1	=1
4f	iſt
4f	mit
4a	dir
4cc	ge-
=2	=2
(4ff	-ſche-
4cc)	.
4a}	-hen,
{4f	o
=3	=3
4dd	du
4dd	Na-
4ee	-po-
4ee	-le-
=4	=4
2ff	-on?
4r}	.
{4c	Das
=5	=5
4f	Scep-
4f	-ter
4a	und
4cc	die
=6	=6
(4ff	Kro-
4cc)	.
4a}	-ne,
{4f	das
=7	=7
4dd	war
4dd	dein
4ee	Ei-
4ee	-gen-
=8	=8
2ff	-thum.
4r}	.
{4a	Mit
=9	=9
4.g	fünf-
8g	-mal
4ff	hun-
4ff	-dert-
=10	=10
4.ee	-tau-
8ee	-ſend
4ee}	Mann
{4ee	wollſt
=11	=11
4gg	du
4gg	nach
4ff	Deutſchland
8dd	.
8dd	mar-
=12	=12
(4.cc	-ſchie-
8dd)	.
8ccL	-ren,
8b-J}	.
{8aL	die
8gJ	.
=13	=13
4f	Hälf-
4f	-te
4a	ward
4cc	ge-
=14	=14
(4ff	-fan-
4cc)	.
4a}	-gen,
{4f	ge-
=15	=15
4dd	-fan-
4dd	-gen
4ee	und
4ee	bleſ-
=16	=16
2ff	-ſiert.
4r}	.
==	==
!!!AGN: historisches Lied, Deutsch - Franzoesischer Krieg (1870)
!!!ONB: ESAC (Essen Associative Code) Database: ERK1
!!!AMT: simple quadruple
!!!AIN: vox
!!!EED: Helmut Schaffrath
!!!EEV: 1.0
!!!GTL: Historische Lieder
!!!URL-scan: https://rosdok.uni-rostock.de/mcrviewer/recordIdentifier/rosdok_ppn745177662/iview2/phys_0180.iview2?x=-554.0825755873236&y=1971.0907626610715&scale=0.46959934367803174&rotation=0&layout=singlePageLayout
!!!ENC: Anna Maria Matuszewska
!!!EEV: 2024/09/12
*-	*-
